src/lib/packages/icons/src/assets/line/pen-tool.svg

<svg width="24" height="24" viewBox="0 0 24 24" fill="none" xmlns="http://www.w3.org/2000/svg">
<path d="M21.237 15.177L18.823 12.763C18.727 12.667 18.659 12.547 18.626 12.415L17.203 6.724C16.841 5.277 15.657 4.182 14.185 3.935L4.265 2.271C3.724 2.187 3.19701 2.35799 2.80201 2.73099C2.78801 2.74299 2.771 2.74701 2.758 2.76001C2.745 2.77301 2.74 2.79099 2.728 2.80499C2.356 3.19999 2.18601 3.72801 2.27001 4.27701L3.933 14.187C4.18 15.658 5.275 16.842 6.722 17.204L12.413 18.627C12.545 18.66 12.665 18.728 12.762 18.824L15.175 21.237C15.506 21.568 15.945 21.75 16.412 21.75C16.88 21.75 17.319 21.568 17.649 21.237L21.235 17.651C21.92 16.969 21.92 15.859 21.237 15.177ZM5.415 13.938L3.91001 4.96899L8.568 9.62701C8.537 9.74701 8.51601 9.87 8.51601 10C8.51601 10.828 9.192 11.5 10.021 11.5C10.85 11.5 11.521 10.828 11.521 10C11.521 9.172 10.85 8.5 10.021 8.5H10.011C9.87501 8.5 9.745 8.52401 9.62 8.55801L4.972 3.91L13.94 5.41501C14.823 5.56301 15.533 6.22001 15.751 7.08801L17.172 12.77L12.772 17.17L7.09 15.75C6.22 15.532 5.563 14.821 5.415 13.938ZM20.177 16.591L16.591 20.177C16.464 20.304 16.366 20.304 16.238 20.177L14.061 18L18 14.061L20.177 16.238C20.274 16.335 20.274 16.493 20.177 16.591Z" fill="currentColor"/>
</svg>

<svg xmlns="http://www.w3.org/2000/svg" width="24" height="24" fill="none"><path fill="currentColor" d="m21.237 15.177-2.414-2.414a.748.748 0 0 1-.197-.348l-1.423-5.691a3.75 3.75 0 0 0-3.018-2.789l-9.92-1.664a1.724 1.724 0 0 0-1.463.46c-.014.012-.031.016-.044.029-.013.013-.018.031-.03.045a1.737 1.737 0 0 0-.458 1.472l1.663 9.91a3.75 3.75 0 0 0 2.789 3.017l5.691 1.423a.756.756 0 0 1 .349.197l2.413 2.413c.331.331.77.513 1.237.513.468 0 .907-.182 1.237-.513l3.586-3.586a1.748 1.748 0 0 0 .002-2.474ZM5.415 13.938 3.91 4.969l4.658 4.658a1.48 1.48 0 0 0-.052.373c0 .828.676 1.5 1.505 1.5a1.5 1.5 0 1 0 0-3h-.01c-.136 0-.266.024-.391.058L4.972 3.91l8.968 1.505a2.251 2.251 0 0 1 1.811 1.673l1.421 5.682-4.4 4.4-5.682-1.42a2.252 2.252 0 0 1-1.675-1.812Zm14.762 2.653-3.586 3.586c-.127.127-.225.127-.353 0L14.061 18 18 14.061l2.177 2.177a.25.25 0 0 1 0 .353Z"/></svg>
